Sources/FrostedUI/Resources/Icons.xcassets/shareScreen32.imageset/share-screen-32.svg

<svg width="32" height="32" viewBox="0 0 32 32" fill="none" xmlns="http://www.w3.org/2000/svg" data-fui-icon="true">
  <path
    d="M22.5 3.75C26.2279 3.75 29.25 6.77208 29.25 10.5V21.5C29.25 25.2279 26.2279 28.25 22.5 28.25H9.5C5.77208 28.25 2.75 25.2279 2.75 21.5V10.5C2.75 6.77208 5.77208 3.75 9.5 3.75H22.5ZM9.5 5.25C6.60051 5.25 4.25 7.60051 4.25 10.5V21.5C4.25 24.3995 6.60051 26.75 9.5 26.75H22.5C25.3995 26.75 27.75 24.3995 27.75 21.5V10.5C27.75 7.60051 25.3995 5.25 22.5 5.25H9.5ZM14.998 10.4414C15.5167 9.92272 16.3381 9.88985 16.8945 10.3438L17.002 10.4414L21.0303 14.4697C21.323 14.7626 21.323 15.2374 21.0303 15.5303C20.7374 15.823 20.2626 15.823 19.9697 15.5303L16.75 12.3105V21C16.7499 21.4141 16.4141 21.75 16 21.75C15.5859 21.75 15.2501 21.4141 15.25 21V12.3105L12.0303 15.5303C11.7374 15.823 11.2626 15.823 10.9697 15.5303C10.677 15.2374 10.677 14.7626 10.9697 14.4697L14.998 10.4414Z"
    fill="currentColor"
  />
</svg>

<svg xmlns="http://www.w3.org/2000/svg" width="32" height="32" fill="none" data-fui-icon="true" viewBox="0 0 32 32"><path fill="currentColor" d="M22.5 3.75a6.75 6.75 0 0 1 6.75 6.75v11a6.75 6.75 0 0 1-6.75 6.75h-13a6.75 6.75 0 0 1-6.75-6.75v-11A6.75 6.75 0 0 1 9.5 3.75zm-13 1.5a5.25 5.25 0 0 0-5.25 5.25v11c0 2.9 2.35 5.25 5.25 5.25h13c2.9 0 5.25-2.35 5.25-5.25v-11c0-2.9-2.35-5.25-5.25-5.25zm5.498 5.191a1.42 1.42 0 0 1 1.897-.097l.107.097 4.028 4.029a.75.75 0 0 1-1.06 1.06l-3.22-3.22V21a.75.75 0 0 1-1.5 0v-8.69l-3.22 3.22a.75.75 0 0 1-1.06-1.06z"/></svg>
